X:1
T:Danslek ur Op "Ran"
T:W. Peterson-Berger (1867-1942)
T:Danslek ur Op "Ran"
T:©CPDL Edition may be freely distributed, duplicated, performed and recorded PA Aglert
T:©CPDL Edition may be freely distributed, duplicated, performed and recorded PA Aglert
T:©CPDL Edition may be freely distributed, duplicated, performed and recorded PA Aglert
T:©CPDL Edition may be freely distributed, duplicated, performed and recorded PA Aglert
T:©CPDL Edition may be freely distributed, duplicated, performed and recorded PA Aglert
T:©CPDL Edition may be freely distributed, duplicated, performed and recorded PA Aglert
T:©CPDL Edition may be freely distributed, duplicated, performed and recorded PA Aglert
T:©CPDL Edition may be freely distributed, duplicated, performed and recorded PA Aglert
T:©CPDL Edition may be freely distributed, duplicated, performed and recorded PA Aglert
T:©CPDL Edition may be freely distributed, duplicated, performed and recorded PA Aglert
T:©CPDL Edition may be freely distributed, duplicated, performed and recorded PA Aglert
T:©CPDL Edition may be freely distributed, duplicated, performed and recorded PA Aglert
T:©CPDL Edition may be freely distributed, duplicated, performed and recorded PA Aglert
C:W. Peterson-Berger (1867-1942)
Z:©CPDL Edition may be freely distributed, duplicated, performed and recorded
Z:PA Aglert
%%score [ 1 2 3 4 ]
L:1/8
Q:1/4=100
M:3/4
K:Ab
V:1 treble nm="S"
V:2 treble nm="A"
V:3 treble-8 nm="T"
V:4 bass nm="B"
V:1
"^Con moto grazioso (quasi polacca)"!p! E2 | cd/c/ BF/A/ GF/E/ | A4!<(! z e!<)! | %3
w: Nu|vil- ja vi le- ka med lö- jen och|lust och|
!f! f>e!>(! c!>)!A!<(! FG/!<)!A/ |!>(! B2!>)! E3!<(! E!<)! |!mf! c/c/d/c/!<(! BB FA | %6
w: svä- nga oss och ni- ga och|bu- ga. Så|må- nget li- tet hjär- ta skall få|
 GF/!<)!E/!f!!>(! e3 c!>)! |!mf! c2 BG!>(! (G/F/)E/!>)!=D/ |!p! E2 E3!mp! c | %9
w: prö- va en dust mot|blic- kar, som kär- * li- gen|tru- ga. Så|
 !courtesy!_d/c/B/c/ dF AB | cE/F/ E3 F | G3 A/B/ GF/E/ | F2 F3 c | d/c/B/c/ dF!<(! AB | %14
w: må- nget li- tet hjär- ta skall be-|stån- da en strid mot|hän- der, som djärvt mån- de|tryc- ka, och|må- nga rö- da läp- par sko- la|
 cG/B/ A3!<)! F |!f! E2 dc!>(! (c/B/)A/!>)!G/ | A2 A3!<(! c!<)! |!f! eB/c/ B3 c | %18
w: bed- ja om grid* och|und- få den lju- * vas- te|lyc- ka. Kom|käm- pa och vinn, lev|
 AF/G/!>(! F2!>)! E!p!F |!<(! GB/!<)!d/!f! f3 g |!>(! fe/c/ e2!>)! e2 |!p! cc/c/ cc BA | %22
w: lus- ti- ga da- gar, den|vän- nen är min som|bäst mig be- ha- gar,|tra la la la la la la|
!<(! dd/!<)!e/!f! f2 z!p! F | F2 EF!<(! (G/F/)G/c/!<)! |"^rit."!>(! B2!>)! A2 !fermata!z!f! c | %25
w: tra la la la. Men|fjä- ri- lar svi- * nga i|lun- den. Och|
"^a tempo" cc AB c/A/c/f/ | ec/e/ c3!>(! c!>)! |!mp! B2 FG!>(! (A/G/)F/=E/!>)! |!p! F2 F3 z | z6 | %30
w: ung- er- sven- nen gång- ar sig åt|ha- gen så grön i|kär- le- kens garn * är han|bun- den.||
 z6 | z6 | z2 z2 z!p! c | (!courtesy!_d/c/)B/c/ dF AB | cE/F/ E3 F | G3 A/B/ GF/E/ | F2 F3 c | %37
w: ||Men|jung- * frun hon vand- rar u- ti|tan- kar- na mång', hon|git- ter den suc- kan ej|hö- ra, ty|
 (d/c/)B/c/ dF!<(! AB | c!<)!G/B/ A3 F |!f! f2 ed (A/G/)!>(!A/B/!>)! |!p!!>(! c2!>)! c2 z2 | %41
w: blomst- * ren på mar- ken och små|fåg- lar- nes sång långt|mer hen- nes håg * mån- de|rö- ra.|
 z2 z!p! G/G/ cC/C/ | C3 z z2 | z2 z B/B/ =dC/C/ | C3 c/c/ fF/F/ | F3 z z2 | z2 z!f! f/f/ bB/B/ | %47
w: Tra la la la la|la|tra la la la la|la tra la la la la|la|tra la la la la|
 B3 z z2 | z2 z2 z!p! c | cc AB c/A/c/f/ | ec/e/ c3!>(! c!>)! |!mp! BB FG!>(! A/G/F/!>)!=E/ | %52
w: la.|Och|ung- er- sven- nen gå- ngar sig i|för- väg med hast och|bry- ter al- la ro- sor han kan|
!p! F2 F3 z | z6 | z6 | z6 | z2 z2 z!p! c | (d/c/)B/c/ dF AB | cE/F/ E3 F | G3 A/B/ GF/E/ | %60
w: fin- na.||||När|jung- * frun det skå- dar, var- da|ro- sor- na fler, ty|fram pa dess kin- der de|
 F2 F3 c |"^cresc." (d/c/)B/c/ d!<(!F AB | cG/!<)!B/ A3 F |!f! E2 dc (c/B/)A/G/ |!<(! A2 A3!<)! c | %65
w: spi- ra. Dock|gläds * hon och ung- er- sven- nen|han- den hon ger. Sitt|bröl- lop de nu * mån- de|fi- ra. Kom|
!ff! eB/c/ B3 c | AF/G/ F2 EF |!<(! GB/d/!<)! f3 g |!>(! fe/c/!>)! e2 e2 |!f! cc/c/ cc BA | %70
w: käm- pa och vinn, lev|lus- ti- ga da- gar, den|vän- nen är min, som|bäst mig be- ha- gar,|tra la la la la la la|
 dd/e/ f2 z F |!mf! F2"^rit." EF!<(! (G/F/)G/!<)!c/ |!>(! B2!>)! A2 z2 |] %73
w: tra la la la. Men|fjä- ri- lar svi- * nga i|lun- den.|
V:2
!p! E2 | EF/E/ DD/D/ DD/D/ | C4!<(! z c!<)! |!f! d>c!>(! AF!>)!!<(! FE/!<)!=D/ | %4
w: Nu|vil- ja vi le- ka med lö- jen och|lust och|svä- nga oss och ni- ga och|
!>(! !courtesy!_D2!>)! D3!<(! D!<)! |!mf! C/E/F/E/!<(! FF DF | ED/!<)!E/!f!!>(! F3!>)! F | %7
w: bu- ga. Så|må- nget li- tet hjär- ta skall få|prö- va en dust mot|
!mf! G2 GE!>(! CC/=D/!>)! |!p! E2 E3!mp! E | F/E/D/E/ FD DD | CC/D/ C3 C | D3 D/D/ DD/D/ | %12
w: blic- kar, som kär- li- gen|tru- ga. Så|må- nget li- tet hjär- ta skall be-|stån- da en strid mot|hän- der, som djärvt mån- de|
 C2 C3 E | F/E/D/E/ FD!<(! DF | =EF/G/ C3!<)! =B, |!f! C2 FE (D/!>(!E/)F/E/!>)! | E2 E3!<(! A!<)! | %17
w: tryc- ka, och|må- nga rö- da läp- par sko- la|bed- ja om grid* och|und- få den lju- * vas- te|lyc- ka. Kom|
!f! GG/G/ G3 G | AC/C/!>(! C2!>)! C!p!C |!<(! DE/!<)!F/!f! G3 G |!>(! Ac/A/ A2!>)! A2 | %21
w: käm- pa och vinn, lev|lus- ti- ga da- gar, den|vän- nen är min som|bäst mig be- ha- gar,|
!p! _GG/G/ GG GG |!<(! FF/!<)!F/!f! F2 z!p! D | D2 DD!<(! DD/!<)!E/ | %24
w: tra la la la la la la|tra la la la. Men|fjä- ri- lar svi- nga i|
!>(! D2!>)! C2 !fermata!z!f! C | AA FG AA | FG AF/A/!>(! FF!>)! |!mp! D2 DD!>(! CD/C/!>)! | %28
w: lun- den. Och|ung- er- sven- nen gång- ar|sig åt ha- gen så grön i|kär- le- kens garn är han|
!p! F2 F3 z | z6 | z6 | z6 | z2 z2 z!p! E | (F/E/)D/E/ FD DD | CC/D/ C3 C | D3 D/D/ DD/D/ | %36
w: bun- den.||||Men|jung- * frun hon vand- rar u- ti|tan- kar- na mång', hon|git- ter den suc- kan ej|
 C2 C3 E | (F/E/)D/E/ FD!<(! DF | =E!<)!F/G/ C3 C |!f! F2 FF F!>(!F/!>)!F/ |!p!!>(! F2!>)! =E2 z2 | %41
w: hö- ra, ty|blomst- * ren på mar- ken och små|fåg- lar- nes sång långt|mer hen- nes håg mån- de|rö- ra.|
 z2 z!p! G/G/ cC/C/ | C3 z z2 | z2 z B/B/ =dC/C/ | C3 c/c/ fF/F/ | F3 z z2 | z2 z!f! F/F/ BB,/B,/ | %47
w: Tra la la la la|la|tra la la la la|la tra la la la la|la|tra la la la la|
 B,3 z z2 | z2 z2 z!p! C | AA FG AA | FG AF/A/ F!>(!F!>)! |!mp! DD DD!>(! C/C/D/!>)!C/ | %52
w: la.|Och|ung- er- sven- nen gå- ngar|sig i för- väg med hast och|bry- ter al- la ro- sor han kan|
!p! F2 F3 z | z6 | z6 | z6 | z2 z2 z!p! E | (F/E/)D/E/ FD DD | CC/D/ C3 C | D3 D/D/ DD/D/ | %60
w: fin- na.||||När|jung- * frun det skå- dar, var- da|ro- sor- na fler, ty|fram pa dess kin- der de|
 C2 C3 E |"^cresc." (F/E/)D/E/ F!<(!D DF | =EF/!<)!G/ C3 =B, |!f! C2 FE (D/E/)F/E/ | %64
w: spi- ra. Dock|gläds * hon och ung- er- sven- nen|han- den hon ger. Sitt|bröl- lop de nu * mån- de|
!<(! E2 E3!<)! A |!ff! GG/G/ G3 G | AC/C/ C2 CC |!<(! DE/F/ G3!<)! G |!>(! Ac/!>)!A/ A2 A2 | %69
w: fi- ra. Kom|käm- pa och vinn, lev|lus- ti- ga da- gar, den|vän- nen är min, som|bäst mig be- ha- gar,|
!f! _GG/G/ GG GG | FF/F/ F2 z D |!mf! D2 DD!<(! DD/!<)!E/ |!>(! D2!>)! C2 z2 |] %73
w: tra la la la la la la|tra la la la. Men|fjä- ri- lar svi- nga i|lun- den.|
V:3
!p! E2 | AA/A/ AA/A/ BA/G/ | E4!<(! z c!<)! |!f! d>c!>(! A!>)!F!<(! =DE/!<)!F/ | %4
w: Nu|vil- ja vi le- ka med lö- jen och|lust och|svä- nga oss och ni- ga och|
!>(! E2 E3!>)!!<(! E!<)! |!mf! A/A/A/A/!<(! AB dc | BB/!<)!B/!f!!>(! =A3 c!>)! | %7
w: bu- ga. Så|må- nget li- tet hjär- ta skall få|prö- va en dust mot|
!mf! e2 eB!>(! AG/!>)!A/ |!p! G2 G3!mp! G | A/A/A/A/ Ad FG | A3 E/F/ EE | (B3 A/G/ B)A/G/ | %12
w: blic- kar, som kär- li- gen|tru- ga. Så|må- nget li- tet hjär- ta skall be-|stån- da en strid mot|hän- * * * der, som|
 A3 E/F/ EE | A/A/A/A/ Ad!<(! FG | GG/G/ A3!<)! A |!f! A2 AA!>(! GB/!>)!d/ | c2 c3!<(! e!<)! | %17
w: djärvt mån- de tryc- ka,|må- nga rö- da läp- par sko- la|bed- ja om grid* och|und- få den lju- vas- te|lyc- ka. Kom|
!f! dd/e/ d3 d | cA/E/!>(! A2!>)! A!p!A |!<(! BG/!<)!B/!f! d3 d |!>(! cc/e/!>)! c2 c2 | %21
w: käm- pa och vinn, lev|lus- ti- ga da- gar, den|vän- nen är min som|bäst mig be- ha- gar,|
!p! ee/e/ ee dc | A3!<(! A/A/!<)!!f! d!p!A | A2 GA!<(! BB/G/!<)! |!>(! E2!>)! E2 !fermata!z2 | z6 | %26
w: tra la la la la la la|la tra la la. Men|fjä- ri- lar svi- nga i|lun- den.||
 z6 | z6 | z2 z2 z!f! c | cc AB (c/A/)c/f/ | ec/e/ c3 c | e2 =dc (=B/G/)B/d/ |!>(! c2!>)! c3!p! G | %33
w: ||Då|mö- ter han den jung- * fru han|äls- kar i lön och|yp- par sin lå- * ga på|stun- den. Men|
 AA/A/ Ad FG | A3 E/F/ EE | (B3 A/G/ B)A/G/ | A3 E/F/ EE | AA/A/ Ad!<(! FF | G!<)!G/G/ A3 A | %39
w: jung- frun hon vand- rar u- ti|tan- kar- na mång', hon|git- * * * ter den|suc- kan ej hö- ra,|blomst- ren på mar- ken och små|fåg- lar- nes sång långt|
!f! A2 AA d!>(!F/F/!>)! |!p!!>(! G2 G2!>)! z!p! =A | cG/=A/ G3 A | F=D/=E/ D2 CD | =EG/B/ =d3 =e | %44
w: mer hen- nes håg mån- de|rö- ra. Kom|käm- pa och vinn, lev|lus- ti- ga da- gar, den|vän- nen är min som|
 =dc/=A/ c2 c2 | =AA/A/ AA GF |!<(! BB/!<)!c/ =d2 z =D | =D2 CD!<(! (=E/D/)E/!<)!=A/ | %48
w: bäst mig be- ha- gar,|tra la la la la la la|tra la la la. Men|fjä- ri- lar svi- * nga i|
!mf!!<(! (G4!<)!!f! c2) |!>(! c2 z2 z2!>)! | z6 | z6 | z2 z2 z!p! c | cc AB c/A/c/f/ | ec/e/ c3 c | %55
w: lun- *|den.|||Han|sam- lar dem åt hen- ne u- tan|ro el- ler rast; En|
 e2 =dc (=B/G/)B/d/ |!>(! c2!>)! c3!p! G | AA/A/ Ad FG | A3 E/F/ EE | (B3 A/G/ B)A/G/ | %60
w: yn- nest han ak- * tar att|vin- na. När|jung- frun det skå- dar, var- da|ro- sor- na fler, ty|fram * * * på dess|
 A3 E/F/ EE/E/ |"^cresc." AA/A/ A!<(!d FF | GG/!<)!G/ A3 A |!f! A2 AA GB/d/ |!<(! c2!<)! c3 e | %65
w: kin- der de spi- ra. Dock|gläds hon och ung- er- sven- nen|han- den hon ger. Sitt|bröl- lop de nu mån- de|fi- ra. Kom|
!ff! dd/e/ d3 d | cA/E/ A2 AA |!<(! BG/B/!<)! d3 d |!>(! cc/!>)!e/ c2 c2 |!f! ee/e/ ee dc | %70
w: käm- pa och vinn, lev|lus- ti- ga da- gar, den|vän- nen är min, som|bäst mig be- ha- gar,|tra la la la la la la|
 A3!<(! A/A/!<)! dA |!mf! A2 GA!<(! BB/!<)!G/ |!>(! E2!>)! E2 z2 |] %73
w: la tra la la. Men|fjä- ri- lar svi- nga i|lun- den.|
V:4
!p! E,2 | A,A,/A,/ A,A,/A,/ B,A,/G,/ | E,4 z!<(! C!<)! |!f! D>C!>(! A,!>)!F,!<(! =D,E,/!<)!F,/ | %4
w: Nu|vil- ja vi le- ka med lö- jen och|lust och|svä- nga oss och ni- ga och|
!>(! E,2!>)! E,3!<(! E,!<)! |!mf! A,,/A,/A,/A,/!<(! D,D, D,D, | E,F,/!<)!G,/!f!!>(! C,3!>)! =A,, | %7
w: bu- ga. Så|må- nget li- tet hjär- ta skall få|prö- va en dust mot|
!mf! B,,2 B,,B,,!>(! B,,B,,/!>)!B,,/ |!p! E,2 E,3!mp! E, | B,,/B,,/B,,/B,,/ B,,B,, E,E, | %10
w: blic- kar, som kär- li- gen|tru- ga. Så|må- nget li- tet hjär- ta skall be-|
 A,,3 E,/F,/ E,E, | E,E,/F,/ (E,4 | A,,)E,/F,/ E,2 E,E, | B,,/B,,/B,,/B,,/ B,,B,,!<(! E,D, | %14
w: stån- da en strid mot|hän- der, som djärvt|* mån- de tryc- ka, och|må- nga rö- da läp- par sko- la|
 C,=D,/=E,/ F,3 _D,!<)! |!f! E,2 E,E,!>(! E,E,/!>)!E,/ | A,2 A,3!<(! A,!<)! |!f! E,3 E,/F,/ E,E, | %18
w: bed- ja om grid* och|und- få den lju- vas- te|lyc- ka. Kom|käm- pa och vinn, lev|
 E,3!>(! E,/F,/!>)! E,E,/F,/ |!p! E,3!<(! E,/F,/!<)!!f! E,E, | E,3!>(! E,/F,/ E,!>)!E, | %21
w: lus- ti- ga da- gar, den|vän- nen är min som|bäst mig be- ha- gar,|
!p! A,A,/A,/ A,A, A,A, | D,3!<(! A,/!<)!A,/!f! D!p!D, | E,2 E,E,!<(! E,E,/!<)!E,/ | %24
w: tra la la la la la la|la tra la la. Men|fjä- ri- lar svi- nga i|
!>(! A,,2!>)! A,,2 !fermata!z2 | z6 | z6 | z6 | z2 z2 z!f! A, | A,A, F,G, A,2 | %30
w: lun- den.||||Då|mö- ter han den jung-|
 F,G, A,F,/A,/ F,A, | G,2 F,E, G,A,/G,/ |!>(! C,2!>)! C,3!p! C, | B,,B,,/B,,/ B,,B,, E,E, | %34
w: fru han äls- kar i lön och|yp- par sin lå- ga på|stun- den. Men|jung- frun hon vand- rar u- ti|
 A,,3 E,/F,/ E,E, | E,E,/F,/ (E,4 | A,,)E,/F,/ E,2 E,E, | B,,B,,/B,,/ B,,B,,!<(! E,D, | %38
w: tan- kar- na mång', hon|git- ter den suc-|* kan ej hö- ra, ty|blomst- ren på mar- ken och små|
 C,!<)!=D,/=E,/ F,3 _E, |!f! !courtesy!_D,2 D,D, D,!>(!D,/D,/!>)! |!p!!>(! C,2!>)! C,2 z!p! =A, | %41
w: fåg- lar- nes sång långt|mer hen- nes håg mån- de|rö- ra. Kom|
 CG,/=A,/ G,3 A, | F,=D,/=E,/ D,2 C,D, | =E,G,/B,/ =D3 =E | =DC/=A,/ C2 A,2 | =A,A,/A,/ A,A, G,F, | %46
w: käm- pa och vinn, lev|lus- ti- ga da- gar, den|vän- nen är min som|bäst mig be- ha- gar,|tra la la la la la la|
!<(! B,B,/!<)!C/ =D2 z =D, | =D,2 C,D,!<(! (=E,/D,/)E,/!<)!=A,/ |!mf!!<(! (G,4!<)!!f! C2) | %49
w: tra la la la. Men|fjä- ri- lar svi- * nga i|lun- *|
!>(! F,2 z2 z2!>)! | z6 | z6 | z2 z2 z!p! A, | A,A, F,G, A,A, | F,G, A,F,/A,/ F,A, | %55
w: den.|||Han|sam- lar dem åt hen- ne|u- tan ro el- ler rast; En|
 G,2 F,E, G,A,/G,/ |!>(! C,2!>)! C,3!p! C, | B,,B,,/B,,/ B,,B,, E,E, | A,,3 E,/F,/ E,E, | %59
w: yn- nest han ak- tar att|vin- na. När|jung- frun det skå- dar, var- da|ro- sor- na fler, ty|
 B,,E,/F,/ (E,4 | A,,)E,/F,/ E,2 E,E, |"^cresc." B,,B,,/B,,/ B,,!<(!B,, E,D, | %62
w: fram på dess kin-|* der de spi- ra. Dock|gläds hon och ung- er- sven- nen|
 C,=D,/!<)!=E,/ F,3 _D, |!f! E,2 E,E, E,E,/E,/ |!<(! A,2 A,3!<)! A, |!ff! E,3 E,/F,/ E,E, | %66
w: han- den hon ger. Sitt|bröl- lop de nu mån- de|fi- ra. Kom|käm- pa och vinn, lev|
 E,3 E,/F,/ E,E,/F,/ |!<(! E,3 E,/!<)!F,/ E,E, | E,3 E,/F,/ E,E, |!f! A,A,/A,/ A,A, A,A, | %70
w: lus- ti- ga da- gar, den|vän- nen är min, som|bäst mig be- ha- gar,|tra la la la la la la|
 D,3!<(! A,/A,/!<)! DD, |!mf! E,2 E,E,!<(! E,E,/!<)!E,/ |!>(! A,,2!>)! A,,2 z2 |] %73
w: la tra la la. Men|fjä- ri- lar svi- nga i|lun- den.|

